X:1
T:Title
%%score { ( 1 5 ) | ( 2 3 4 ) }
L:1/8
M:4/4
K:Ab
V:1 treble nm="Grand Piano"
V:5 treble 
V:2 bass 
V:3 bass 
V:4 bass 
V:1
 z4 z2[Q:1/4=92] [CE][CA] | [Ec]3 [Fd] cBAG | [CA]2 [CE]2 z2 EG | [GB]3 [GB] AG[A,F]E | %4
[M:3/4] [Ec]6 |[M:1/4] [Ec][Ad] |[M:4/4] [Ae]3 [Ed] [Ec]BAE | [A,EG]2 [A,DF]2 z2 [Fd][DFB] | %8
 [CEA]2 [B,G]A [EGc]3 [DEB] |[M:3/4] [CEA]6 |[M:1/4] z2 |[M:4/4] z2 [DG][DG] [DG]2 z2 | %12
 z [CE][CE][CE] [CE]2 AG | FGAB c2 =d2 |[M:11/8] e-[_Ge-][=Ge-][Ae-][Be]-[Be]- [Be]2- [B-e]/B/EE | %15
[M:4/4] ee[Ge][Gd] [Ec][EB] z A, | [EG]2 [DF]4 z2 | EGGG G2 AB |[M:3/4] [CA]6 |] %19
V:2
 z4 z2 [A,,A,][A,,A,] | z4 .[A,E]2 z2 | [A,,E,]2 [A,,A,]2 z2 [E,G,][E,B,E] | %3
 [E,D]3 [E,D] [E,E]-[E,B,E] z G, |[M:3/4] [A,,A,]6 |[M:1/4] [A,,A,][A,,B,] | %6
[M:4/4] [A,,C]3 [A,,B,] A,[E,D][E,C]A, | D,2 D,2 z2 [D,A,]D, | E,2 z C E,3 E, |[M:3/4] A,,6 | %10
[M:1/4][K:treble] EG |[M:4/4] B6[K:bass][K:treble] z2 | A6[K:bass] z2 | %13
 F,[=E,G,=E][K:treble][F,A,F][G,B,G] [A,CA]2 [B,A]2 | %14
[M:11/8][K:bass] E,-[E,-=A,][E,-B,][E,-C][E,D]-[E,D]- [E,D]3[K:treble] [G,D][B,D] | %15
[M:4/4] [A,CE][A,CA][K:bass][E,C][E,B,] [A,,A,][B,,G,] .[C,A,]>E | D,D,D,D, D,D, B,,>B,, | %17
 [E,G,D][E,B,D][E,B,D][E,B,D] [E,B,D]2 [E,F,D][E,G,D] |[M:3/4] [A,,A,]6 |] %19
V:3
 x8 | [A,,A,]3 [A,,A,] E,-[E,G,D][E,A,C][E,B,] | x8 | z4 .C2 E,2 |[M:3/4] x6 |[M:1/4] x2 | %6
[M:4/4] z4 A,,2 C,2 | x8 | z2 E,2 z4 |[M:3/4] x6 |[M:1/4][K:treble] x2 | %11
[M:4/4] z2[K:bass] E,E, z[K:treble] cdG | z[K:bass] A,,C,E, A,2 A,G, | x2[K:treble] x6 | %14
[M:11/8][K:bass] .B,2 z z z z z z z[K:treble] z2 |[M:4/4] z4[K:bass] z2 z C, | x8 | x8 | %18
[M:3/4] x6 |] %19
V:4
 x8 | x8 | x8 | x8 |[M:3/4] x6 |[M:1/4] x2 |[M:4/4] x8 | x8 | x8 |[M:3/4] x6 | %10
[M:1/4][K:treble] x2 |[M:4/4] z4[K:bass] E,2[K:treble] z2 | x[K:bass] x7 | x2[K:treble] x6 | %14
[M:11/8][K:bass] x9[K:treble] x2 |[M:4/4] x2[K:bass] x6 | x8 | x8 |[M:3/4] x6 |] %19
V:5
 x8 | x8 | x8 | x8 |[M:3/4] x6 |[M:1/4] x2 |[M:4/4] x8 | x8 | x8 |[M:3/4] x6 |[M:1/4] x2 | %11
[M:4/4] x8 | x8 | x8 |[M:11/8] .G2 z z z z z z z z2 |[M:4/4] z4 z2 [EA]2 | %16
 A,A,A,A, A,A, [A,DF]>[A,DF] | x8 |[M:3/4] x6 |] %19

